X: 34055
T: Reel De La Barricade
R: reel
M: 4/4
K: Bminor
|:Bcdf e2Bc|defg fedc|Bcdf e2cd|edcB c2c2|
Bcdf e2Bc|defg fedc|Bcdf e2ag|1 fedc B2F2:|2 fedc B2f2||
|:f3d c2B2|A2F2 GBAG|F2DF Adfd|e3B B3f|
[1 g3f e2d2|a3e c2ef|g2f2 e2d2|c2B2 A2G2:|
[2 g3f e2d2|a3e c2de|fedc BAGF|GABc B2F2||

